assets/icons/camera.svg

<svg width="24" height="24" viewBox="0 0 24 24" fill="none" xmlns="http://www.w3.org/2000/svg">
<path fill-rule="evenodd" clip-rule="evenodd" d="M16.9917 5.18455H20.5901C22.1162 5.18455 23.3187 6.38404 23.3737 7.91011V18.8154C23.3737 20.3415 22.1193 21.541 20.6481 21.541H3.47068C1.94461 21.541 0.745117 20.2865 0.745117 18.8154V7.91011C0.745117 6.38404 1.99955 5.18455 3.47068 5.18455H7.06915L8.59522 2.89544C8.75699 2.6238 9.03168 2.45898 9.35826 2.45898H14.7026C15.0291 2.45898 15.3008 2.6238 15.4656 2.89544L16.9917 5.18455ZM8.79358 12.8729C8.79358 14.658 10.2407 16.1051 12.0258 16.1051C13.8109 16.1051 15.258 14.658 15.258 12.8729C15.258 11.0878 13.8109 9.64066 12.0258 9.64066C10.2407 9.64066 8.79358 11.0878 8.79358 12.8729ZM12.0259 18.2813C9.05613 18.2813 6.61747 15.8426 6.61747 12.8729C6.61747 9.90315 9.05919 7.46449 12.0259 7.46449C14.9925 7.46449 17.4343 9.90315 17.4343 12.8729C17.4343 15.8426 14.9956 18.2813 12.0259 18.2813Z" fill="#CBCDD1"/>
</svg>

<svg xmlns="http://www.w3.org/2000/svg" width="24" height="24" fill="none" data-c="1"><path fill="#CBCDD1" fill-rule="evenodd" d="M16.992 5.185h3.598c1.526 0 2.729 1.199 2.784 2.725v10.905a2.734 2.734 0 0 1-2.726 2.726H3.471a2.734 2.734 0 0 1-2.726-2.726V7.91a2.734 2.734 0 0 1 2.726-2.725h3.598l1.526-2.29a.87.87 0 0 1 .763-.436h5.345c.326 0 .598.165.763.436zm-8.198 7.688a3.232 3.232 0 1 0 6.464 0 3.232 3.232 0 0 0-6.464 0m3.232 5.408c-2.97 0-5.409-2.438-5.409-5.408s2.442-5.409 5.409-5.409 5.408 2.44 5.408 5.409c0 2.97-2.438 5.408-5.408 5.408" clip-rule="evenodd"/></svg>
